public/logos/8M.svg

<?xml version="1.0" encoding="UTF-8"?>
<svg xmlns="http://www.w3.org/2000/svg" xmlns:xlink="http://www.w3.org/1999/xlink" width="175.04pt" height="55.93pt" viewBox="0 0 175.04 55.93" version="1.1">
<defs>
<clipPath id="clip1">
  <path d="M 0 0 L 53 0 L 53 55.929688 L 0 55.929688 Z M 0 0 "/>
</clipPath>
<clipPath id="clip2">
  <path d="M 58 9 L 175.039062 9 L 175.039062 40 L 58 40 Z M 58 9 "/>
</clipPath>
</defs>
<g id="surface1">
<path style=" stroke:none;fill-rule:nonzero;fill:rgb(97.297668%,90.26947%,2.340698%);fill-opacity:1;" d="M 27.667969 1.9375 C 15.3125 1.9375 5.292969 11.953125 5.292969 24.3125 C 5.292969 36.667969 15.3125 46.683594 27.667969 46.683594 C 40.023438 46.683594 50.039062 36.667969 50.039062 24.3125 C 50.039062 11.953125 40.023438 1.9375 27.667969 1.9375 "/>
<g clip-path="url(#clip1)" clip-rule="nonzero">
<path style=" stroke:none;fill-rule:nonzero;fill:rgb(14.399719%,31.32782%,60.675049%);fill-opacity:1;" d="M 5.117188 14.242188 C 6.09375 14.308594 7.523438 15.042969 7.90625 17.9375 C 8.289062 20.828125 9.300781 23.296875 10.96875 25.28125 C 12.640625 27.269531 13.199219 26.710938 15.53125 28.171875 C 16.855469 29 23.632812 32.4375 26.640625 35.3125 C 28.015625 36.625 27.023438 36.53125 28.523438 38.167969 C 30.023438 39.808594 32.25 41.09375 32.25 41.09375 C 32.25 41.09375 35.535156 45.464844 38.414062 48.652344 C 42.128906 52.773438 45.589844 55.617188 47.714844 55.929688 L 46.632812 51.960938 C 46.632812 51.960938 44.890625 52.238281 43.777344 51.265625 C 42.699219 50.324219 40.746094 48.550781 40.746094 48.550781 C 40.746094 48.550781 40.328125 47.46875 39.667969 45.730469 C 39.007812 43.988281 37.441406 41.234375 36.601562 41.164062 C 36.601562 41.164062 37.613281 38.238281 37.441406 34.757812 C 37.441406 34.757812 39.789062 35.238281 42.207031 34.683594 C 45.398438 33.957031 45.519531 31.722656 45.101562 29.878906 C 46.003906 29.707031 48.234375 28.9375 47.921875 26.851562 C 47.734375 25.597656 46.949219 22.636719 47.398438 21.765625 C 47.398438 21.765625 45.445312 22.75 44.488281 24.363281 C 43.640625 25.804688 43.777344 27.894531 43.777344 27.894531 C 43.777344 27.894531 42.941406 26.675781 40.15625 25.667969 C 37.742188 24.789062 35.171875 25.773438 35.171875 25.773438 C 35.171875 25.773438 35.84375 26.320312 36.917969 27.128906 C 38.34375 28.207031 37.613281 28.175781 38.621094 29.324219 C 40.363281 31.308594 42.453125 30.960938 43.707031 30.371094 C 43.707031 30.371094 44.03125 32.269531 42.929688 32.746094 C 41.503906 33.355469 38.484375 32.496094 37.542969 31.550781 C 36.253906 27.683594 33.433594 25.976562 31.730469 25.457031 C 31.867188 24.027344 32.738281 23.15625 34.617188 23.332031 C 35.597656 23.425781 39.25 24.097656 41.929688 23.4375 C 44.613281 22.773438 44.890625 21.105469 44.890625 21.105469 C 44.890625 21.105469 42.625 21.105469 42.035156 20.476562 C 43.953125 20.164062 50.324219 19.433594 51.191406 12.433594 C 51.191406 12.433594 49.269531 13.644531 47.539062 13.375 C 53.109375 9.613281 52.242188 2.160156 52.242188 2.160156 C 52.242188 2.160156 50.496094 3.898438 47.367188 6.40625 C 44.230469 8.914062 39.023438 11.839844 36.289062 12.570312 C 33.230469 13.390625 32.597656 12.746094 28.175781 13.753906 C 24.453125 14.605469 22.710938 16.4375 22.710938 18.320312 C 22.710938 20.476562 23.996094 22.007812 23.996094 22.007812 C 23.996094 22.007812 22.679688 20.984375 21.835938 19.292969 C 20.617188 16.855469 21.261719 15.085938 24.152344 13.554688 C 27.835938 13.710938 28.253906 12.535156 28.253906 12.535156 C 28.253906 12.535156 25.824219 12.566406 25.589844 11.597656 C 25.589844 11.597656 26.214844 11.464844 27.3125 11.152344 C 28.410156 10.839844 30.320312 9.953125 30.445312 8.984375 C 30.445312 8.984375 28.4375 9.53125 25.71875 9.402344 L 26.789062 7.730469 C 26.789062 7.730469 23.496094 8.878906 23.316406 8.09375 L 24.570312 7.46875 C 24.570312 7.46875 24.074219 7.078125 22.953125 6.449219 C 21.828125 5.824219 20.285156 5.824219 19.738281 5.980469 C 19.1875 6.132812 19.113281 6.242188 18.535156 5.929688 C 17.964844 5.617188 17.78125 5.09375 18.089844 4.671875 C 18.40625 4.253906 18.796875 4.148438 19.5 3.757812 C 20.207031 3.367188 20.46875 2.347656 20 1.695312 C 19.53125 1.042969 18.746094 0 18.746094 0 C 18.746094 0 18.5625 0.546875 18.695312 0.886719 C 18.695312 0.886719 18.066406 0.859375 17.671875 1.042969 C 17.671875 1.042969 18.1875 1.292969 18.433594 1.796875 C 18.796875 2.554688 17.386719 3.183594 16.839844 3.628906 C 16.078125 4.242188 16.003906 4.910156 16.003906 4.910156 C 16.003906 4.910156 13.964844 3.890625 13.445312 2.585938 C 13.546875 5.980469 16.027344 6.917969 16.027344 6.917969 C 16.027344 6.917969 16.027344 8.148438 16.160156 8.984375 L 19.085938 9.269531 C 19.085938 9.269531 18.929688 10.238281 18.300781 10.238281 C 17.671875 10.238281 17.152344 10.15625 16.472656 9.664062 C 16.472656 9.664062 16.132812 11.097656 15.507812 11.9375 C 15.507812 11.9375 16.339844 11.691406 16.96875 11.691406 C 17.726562 11.691406 18.128906 12.230469 17.554688 13.179688 C 17.027344 14.046875 16.289062 14.609375 14.976562 14.378906 C 13.164062 14.066406 11.839844 14.378906 10.03125 16.296875 C 10.03125 16.296875 8.707031 14.171875 8.707031 12.535156 L 2.296875 12.429688 C 2.296875 12.429688 0.871094 16.125 0 16.886719 L 4.074219 16.472656 C 2.960938 14.378906 4.144531 14.171875 5.117188 14.242188 "/>
</g>
<path style=" stroke:none;fill-rule:nonzero;fill:rgb(14.399719%,31.32782%,60.675049%);fill-opacity:1;" d="M 18.769531 7.621094 C 18.769531 7.335938 19 7.105469 19.285156 7.105469 C 19.570312 7.105469 19.800781 7.335938 19.800781 7.621094 C 19.800781 7.90625 19.570312 8.136719 19.285156 8.136719 C 19 8.136719 18.769531 7.90625 18.769531 7.621094 "/>
<path style=" stroke:none;fill-rule:nonzero;fill:rgb(97.297668%,90.26947%,2.340698%);fill-opacity:1;" d="M 84.429688 15.238281 L 95.386719 15.238281 L 89.910156 9.765625 Z M 84.429688 15.238281 "/>
<path style=" stroke:none;fill-rule:nonzero;fill:rgb(97.297668%,90.26947%,2.340698%);fill-opacity:1;" d="M 140.234375 39.015625 L 145.707031 33.542969 L 134.761719 33.542969 Z M 140.234375 39.015625 "/>
<g clip-path="url(#clip2)" clip-rule="nonzero">
<path style=" stroke:none;fill-rule:nonzero;fill:rgb(14.399719%,31.32782%,60.675049%);fill-opacity:1;" d="M 172.074219 37.027344 L 172.074219 12.570312 C 172.074219 12.570312 173.40625 10.617188 175.039062 9.992188 L 161.605469 9.992188 C 161.605469 9.992188 163.792969 10.929688 164.648438 12.257812 L 164.648438 37.199219 L 163.867188 38.199219 C 163.867188 38.199219 161.835938 36.011719 158.792969 31.789062 C 155.746094 27.570312 143.941406 9.988281 143.941406 9.988281 L 133.710938 9.988281 C 134.804688 10.617188 135.351562 11.863281 134.726562 12.960938 C 134.105469 14.058594 119.488281 36.871094 119.488281 36.871094 C 119.488281 36.871094 114.414062 14.597656 114.175781 13.429688 C 113.941406 12.253906 113.941406 11.003906 116.675781 9.988281 L 103.941406 9.988281 L 103.941406 10.773438 L 91.128906 31.164062 L 76.832031 9.601562 L 64.097656 9.601562 L 66.835938 11.550781 C 66.835938 11.550781 62.59375 33.117188 62.1875 34.585938 C 61.953125 35.464844 59.546875 38.78125 58.589844 38.78125 C 58.589844 38.804688 58.578125 39.054688 58.578125 39.054688 L 69.90625 39.054688 L 69.882812 38.753906 C 68.484375 38.753906 67.066406 37.097656 67.535156 34.988281 C 68.003906 32.878906 71.988281 14.753906 71.988281 14.753906 C 71.988281 14.753906 82.929688 31.007812 85.894531 35.148438 C 87.613281 37.410156 91.753906 39.757812 91.753906 39.757812 L 107.277344 14.964844 C 107.277344 14.964844 111.367188 33.585938 111.71875 35.34375 C 112.0625 37.101562 110.230469 38.742188 108.863281 38.742188 L 108.863281 39.011719 L 127.496094 39.011719 C 127.496094 39.011719 127.460938 38.742188 127.496094 38.742188 C 126.640625 38.742188 125.210938 37.363281 126.242188 35.636719 C 127.28125 33.910156 139.628906 14.039062 139.628906 14.039062 C 139.628906 14.039062 152.722656 34.972656 153.582031 36.453125 C 154.441406 37.9375 152.742188 39.070312 151.699219 39.070312 L 151.699219 39.347656 L 174.804688 39.347656 L 174.804688 39.089844 C 173.929688 39.035156 172.074219 37.027344 172.074219 37.027344 "/>
</g>
</g>
</svg>

<svg xmlns="http://www.w3.org/2000/svg" width="233.387" height="74.573" viewBox="0 0 175.04 55.93"><defs><clipPath id="a"><path d="M0 0h53v55.93H0Zm0 0"/></clipPath><clipPath id="b"><path d="M58 9h117.04v31H58Zm0 0"/></clipPath></defs><path d="M27.668 1.938c-12.355 0-22.375 10.015-22.375 22.375 0 12.355 10.02 22.37 22.375 22.37s22.371-10.015 22.371-22.37c0-12.36-10.016-22.375-22.371-22.375" style="stroke:none;fill-rule:nonzero;fill:#f8e606;fill-opacity:1"/><g clip-path="url(#a)"><path d="M5.117 14.242c.977.067 2.406.801 2.79 3.695.382 2.891 1.394 5.36 3.062 7.344 1.672 1.989 2.23 1.43 4.562 2.89 1.324.829 8.102 4.267 11.11 7.142 1.375 1.312.382 1.218 1.882 2.855 1.5 1.64 3.727 2.926 3.727 2.926s3.285 4.37 6.164 7.558c3.715 4.121 7.176 6.965 9.3 7.278l-1.081-3.97s-1.742.278-2.856-.694a285 285 0 0 1-3.03-2.715s-.419-1.082-1.079-2.82c-.66-1.743-2.227-4.497-3.066-4.567 0 0 1.011-2.926.84-6.406 0 0 2.347.48 4.765-.074 3.191-.727 3.313-2.961 2.895-4.805.902-.172 3.132-.942 2.82-3.027-.188-1.254-.973-4.215-.524-5.086 0 0-1.953.984-2.91 2.597-.847 1.442-.71 3.532-.71 3.532s-.837-1.22-3.622-2.227c-2.414-.879-4.984.105-4.984.105s.672.547 1.746 1.356c1.426 1.078.695 1.047 1.703 2.195 1.742 1.985 3.832 1.637 5.086 1.047 0 0 .324 1.899-.777 2.375-1.426.61-4.446-.25-5.387-1.195-1.29-3.867-4.11-5.574-5.813-6.094.137-1.43 1.008-2.3 2.887-2.125.98.094 4.633.766 7.313.105 2.683-.664 2.96-2.332 2.96-2.332s-2.265 0-2.855-.628c1.918-.313 8.29-1.043 9.156-8.043 0 0-1.921 1.21-3.652.941C53.11 9.613 52.242 2.16 52.242 2.16s-1.746 1.738-4.875 4.246C44.23 8.914 39.023 11.84 36.29 12.57c-3.059.82-3.691.176-8.113 1.184-3.723.851-5.465 2.684-5.465 4.566 0 2.157 1.285 3.688 1.285 3.688s-1.316-1.024-2.16-2.715c-1.219-2.438-.574-4.207 2.316-5.738 3.684.156 4.102-1.02 4.102-1.02s-2.43.031-2.664-.937c0 0 .625-.133 1.723-.446 1.097-.312 3.007-1.199 3.132-2.168 0 0-2.008.547-4.726.418l1.07-1.672s-3.293 1.149-3.473.364l1.254-.625s-.496-.39-1.617-1.02c-1.125-.625-2.668-.625-3.215-.469-.55.153-.625.262-1.203-.05-.57-.313-.754-.836-.445-1.258.316-.418.707-.524 1.41-.914.707-.39.969-1.41.5-2.063C19.531 1.043 18.746 0 18.746 0s-.183.547-.05.887c0 0-.63-.028-1.024.156 0 0 .515.25.762.754.363.758-1.047 1.387-1.594 1.832-.762.613-.836 1.281-.836 1.281s-2.04-1.02-2.559-2.324c.102 3.394 2.582 4.332 2.582 4.332s0 1.23.133 2.066l2.926.286s-.156.968-.785.968c-.63 0-1.149-.082-1.828-.574 0 0-.34 1.434-.965 2.274 0 0 .832-.247 1.46-.247.759 0 1.16.54.587 1.489-.528.867-1.266 1.43-2.578 1.199-1.813-.313-3.137 0-4.946 1.918 0 0-1.324-2.125-1.324-3.762l-6.41-.105S.87 16.125 0 16.887l4.074-.414c-1.113-2.094.07-2.301 1.043-2.23" style="stroke:none;fill-rule:nonzero;fill:#25509b;fill-opacity:1"/></g><path d="M18.77 7.621a.515.515 0 1 1 1.03 0 .515.515 0 0 1-1.03 0" style="stroke:none;fill-rule:nonzero;fill:#25509b;fill-opacity:1"/><path d="M84.43 15.238h10.957L89.91 9.766ZM140.234 39.016l5.473-5.473h-10.945Zm0 0" style="stroke:none;fill-rule:nonzero;fill:#f8e606;fill-opacity:1"/><g clip-path="url(#b)"><path d="M172.074 37.027V12.57s1.332-1.953 2.965-2.578h-13.434s2.188.938 3.043 2.266v24.941l-.78 1s-2.032-2.187-5.075-6.41c-3.047-4.219-14.852-21.8-14.852-21.8h-10.23c1.094.628 1.64 1.874 1.016 2.972-.622 1.098-15.239 23.91-15.239 23.91s-5.074-22.273-5.312-23.441c-.235-1.176-.235-2.426 2.5-3.442H103.94v.785L91.13 31.164 76.832 9.602H64.098l2.738 1.949s-4.242 21.566-4.648 23.035c-.235.879-2.641 4.195-3.598 4.195 0 .024-.012.274-.012.274h11.328l-.023-.301c-1.399 0-2.817-1.656-2.348-3.766s4.453-20.234 4.453-20.234S82.93 31.008 85.895 35.148c1.718 2.262 5.859 4.61 5.859 4.61l15.523-24.793s4.09 18.62 4.442 20.379c.344 1.758-1.489 3.398-2.856 3.398v.27h18.633s-.035-.27 0-.27c-.855 0-2.285-1.379-1.254-3.105 1.04-1.727 13.387-21.598 13.387-21.598s13.094 20.934 13.953 22.414c.86 1.484-.84 2.617-1.883 2.617v.278h23.106v-.258c-.875-.055-2.73-2.063-2.73-2.063" style="stroke:none;fill-rule:nonzero;fill:#25509b;fill-opacity:1"/></g></svg>
